;FLAVOR:Marlin
;TIME:14451
;Filament used: 8.96032m
;Layer height: 0.2
;MINX:28.672
;MINY:26.26
;MINZ:0.2
;MAXX:183.468
;MAXY:180.029
;MAXZ:5
;Generated with Cura_SteamEngine 4.8.0
M140 S70
M105
M190 S70
M104 S240
M105
M109 S240
M82 ;absolute extrusion mode
; Ender 3 Custom Start G-code
G92 E0 ; Reset Extruder
G28 ; Home all axes
G1 Z2.0 F3000 ; Move Z Axis up little to prevent scratching of Heat Bed
G1 X0.1 Y20 Z0.3 F5000.0 ; Move to start position
G1 X0.1 Y200.0 Z0.3 F1500.0 E15 ; Draw the first line
G1 X0.4 Y200.0 Z0.3 F5000.0 ; Move to side a little
G1 X0.4 Y20 Z0.3 F1500.0 E30 ; Draw the second line
G92 E0 ; Reset Extruder
G1 Z2.0 F3000 ; Move Z Axis up little to prevent scratching of Heat Bed
G1 X5 Y20 Z0.3 F5000.0 ; Move over to prevent blob squish
G92 E0
G92 E0
G1 F1500 E-6.5
;LAYER_COUNT:25
;LAYER:0
M107
G0 F6000 X63.288 Y41.89 Z0.2
;TYPE:SKIRT
G1 F1500 E0
G1 F900 X63.481 Y41.609 E0.01134
G1 X63.86 Y41.074 E0.03314
G1 X64.147 Y40.683 E0.04928
G1 X64.367 Y40.394 E0.06136
G1 X65.294 Y39.223 E0.11103
G1 X65.608 Y38.845 E0.12738
G1 X66.032 Y38.356 E0.1489
G1 X66.249 Y38.113 E0.15974
G1 X66.745 Y37.574 E0.1841
G1 X66.949 Y37.359 E0.19396
G1 X67.39 Y36.905 E0.21501
G1 X67.605 Y36.689 E0.22515
G1 X68.066 Y36.24 E0.24655
G1 X68.254 Y36.062 E0.25516
G1 X68.748 Y35.603 E0.27759
G1 X68.996 Y35.378 E0.28873
G1 X69.583 Y34.865 E0.31466
G1 X69.825 Y34.66 E0.3252
G1 X70.548 Y34.064 E0.35637
G1 X70.897 Y33.788 E0.37117
G1 X71.249 Y33.521 E0.38586
G1 X71.454 Y33.37 E0.39433
G1 X72.251 Y32.794 E0.42704
G1 X72.501 Y32.618 E0.43721
G1 X73.053 Y32.242 E0.45942
G1 X73.332 Y32.058 E0.47054
G1 X73.837 Y31.736 E0.49046
G1 X74.105 Y31.57 E0.50094
G1 X74.921 Y31.082 E0.53256
G1 X75.196 Y30.923 E0.54313
G1 X75.423 Y30.796 E0.55178
G1 X75.694 Y30.65 E0.56202
G1 X76.917 Y30.01 E0.60793
G1 X77.243 Y29.845 E0.62008
G1 X77.496 Y29.724 E0.62941
G1 X78.121 Y29.434 E0.65233
G1 X78.424 Y29.299 E0.66336
G1 X79.006 Y29.05 E0.68441
G1 X79.245 Y28.951 E0.69302
G1 X79.872 Y28.7 E0.71548
G1 X80.164 Y28.588 E0.72588
G1 X80.708 Y28.388 E0.74516
G1 X80.935 Y28.307 E0.75318
G1 X81.553 Y28.095 E0.77491
G1 X81.879 Y27.989 E0.78631
G1 X82.699 Y27.736 E0.81485
G1 X83.016 Y27.643 E0.82584
G1 X83.875 Y27.406 E0.85548
G1 X84.27 Y27.305 E0.86904
G1 X84.621 Y27.222 E0.88103
G1 X84.905 Y27.159 E0.89071
G1 X86.199 Y26.889 E0.93467
G1 X86.534 Y26.824 E0.94602
G1 X86.857 Y26.767 E0.95693
G1 X87.124 Y26.724 E0.96593
G1 X87.752 Y26.629 E0.98705
G1 X88.081 Y26.584 E0.9981
G1 X89.127 Y26.458 E1.03314
G1 X89.554 Y26.414 E1.04742
G1 X89.898 Y26.386 E1.0589
G1 X91.336 Y26.294 E1.10682
G1 X91.709 Y26.276 E1.11924
G1 X91.988 Y26.269 E1.12852
G1 X92.639 Y26.26 E1.15018
G1 X92.916 Y26.26 E1.15939
G1 X93.446 Y26.266 E1.17702
G1 X93.675 Y26.271 E1.18464
G1 X94.297 Y26.291 E1.20534
G1 X94.608 Y26.305 E1.21569
G1 X95.45 Y26.356 E1.24375
G1 X95.761 Y26.379 E1.25412
G1 X96.345 Y26.431 E1.27362
G1 X96.679 Y26.466 E1.28479
G1 X97.538 Y26.569 E1.31357
G1 X97.858 Y26.612 E1.32431
G1 X98.719 Y26.741 E1.35326
G1 X99.115 Y26.808 E1.36662
G1 X99.542 Y26.888 E1.38107
G1 X99.836 Y26.947 E1.39104
G1 X100.967 Y27.191 E1.42953
G1 X101.309 Y27.271 E1.44121
G1 X101.774 Y27.387 E1.45715
G1 X102.048 Y27.459 E1.46657
G1 X102.633 Y27.621 E1.48676
G1 X102.945 Y27.712 E1.49757
G1 X103.974 Y28.03 E1.53339
G1 X104.54 Y28.222 E1.55327
G1 X106.063 Y28.785 E1.60728
G1 X106.537 Y28.973 E1.62424
G1 X107.13 Y29.224 E1.64565
G1 X107.374 Y29.331 E1.65451
G1 X107.78 Y29.516 E1.66935
G1 X108.12 Y29.676 E1.68185
G1 X109.149 Y30.174 E1.71987
G1 X110.991 Y31.098 E1.78841
G1 X113.263 Y32.16 E1.87183
G1 X115.596 Y33.17 E1.95638
G1 X117.928 Y34.104 E2.03994
G1 X120.274 Y34.964 E2.12304
G1 X122.679 Y35.771 E2.20742
G1 X125.05 Y36.494 E2.28986
G1 X127.493 Y37.162 E2.3741
G1 X129.954 Y37.762 E2.45835
G1 X132.426 Y38.292 E2.54244
G1 X134.88 Y38.743 E2.62542
G1 X137.379 Y39.131 E2.70954
G1 X139.852 Y39.444 E2.79245
G1 X142.375 Y39.691 E2.87676
G1 X144.869 Y39.864 E2.95991
G1 X147.82 Y39.969 E3.05813
G1 X147.917 Y39.977 E3.06136
G1 X149.103 Y40.013 E3.10083
G1 X149.43 Y40.028 E3.11171
G1 X150.255 Y40.078 E3.1392
G1 X150.563 Y40.101 E3.14948
G1 X151.16 Y40.154 E3.16941
G1 X151.495 Y40.189 E3.18061
G1 X152.33 Y40.289 E3.20859
G1 X152.662 Y40.334 E3.21973
G1 X153.544 Y40.467 E3.2494
G1 X153.947 Y40.535 E3.26299
G1 X154.365 Y40.614 E3.27714
G1 X154.647 Y40.671 E3.28671
G1 X155.78 Y40.916 E3.32526
G1 X156.112 Y40.994 E3.3366
G1 X156.574 Y41.109 E3.35244
G1 X156.836 Y41.177 E3.36144
G1 X157.45 Y41.346 E3.38262
G1 X157.771 Y41.44 E3.39375
G1 X158.728 Y41.735 E3.42706
G1 X158.984 Y41.817 E3.436
G1 X159.342 Y41.937 E3.44856
G1 X159.59 Y42.024 E3.4573
G1 X160.184 Y42.239 E3.47831
G1 X160.498 Y42.358 E3.48948
G1 X161.07 Y42.585 E3.50994
G1 X161.288 Y42.674 E3.51778
G1 X161.947 Y42.952 E3.54156
G1 X162.255 Y43.088 E3.55276
G1 X162.905 Y43.386 E3.57655
G1 X163.166 Y43.509 E3.58614
G1 X163.696 Y43.769 E3.60578
G1 X163.975 Y43.911 E3.61619
G1 X164.581 Y44.23 E3.63897
G1 X164.809 Y44.354 E3.6476
G1 X165.319 Y44.638 E3.66701
G1 X165.608 Y44.805 E3.67812
G1 X166.224 Y45.173 E3.70198
G1 X166.569 Y45.387 E3.71549
G1 X167.804 Y46.188 E3.76444
G1 X168.315 Y46.541 E3.7851
G1 X169.3 Y47.262 E3.8257
G1 X169.56 Y47.458 E3.83653
G1 X169.903 Y47.725 E3.85099
G1 X170.125 Y47.902 E3.86043
G1 X170.549 Y48.25 E3.87868
G1 X170.798 Y48.461 E3.88953
G1 X171.648 Y49.202 E3.92704
G1 X172.109 Y49.628 E3.94791
G1 X173.262 Y50.755 E4.00154
G1 X173.587 Y51.086 E4.01697
G1 X174.027 Y51.554 E4.03833
G1 X174.225 Y51.77 E4.04808
G1 X174.527 Y52.111 E4.06323
G1 X174.8 Y52.425 E4.07707
G1 X174.942 Y52.592 E4.08436
G1 X175.357 Y53.089 E4.10589
G1 X175.551 Y53.327 E4.11611
G1 X175.954 Y53.838 E4.13775
G1 X176.119 Y54.053 E4.14677
G1 X176.475 Y54.528 E4.16651
G1 X176.66 Y54.781 E4.17693
G1 X177.056 Y55.342 E4.19977
G1 X177.284 Y55.679 E4.21331
G1 X178.091 Y56.917 E4.26246
G1 X178.421 Y57.456 E4.28348
G1 X179.003 Y58.472 E4.32242
G1 X179.161 Y58.758 E4.33329
G1 X179.341 Y59.095 E4.346
G1 X179.486 Y59.376 E4.35651
G1 X179.924 Y60.256 E4.38921
G1 X180.061 Y60.542 E4.39976
G1 X180.33 Y61.124 E4.42108
G1 X180.451 Y61.394 E4.43092
G1 X180.589 Y61.715 E4.44254
G1 X180.714 Y62.019 E4.45348
G1 X181.239 Y63.348 E4.501
G1 X181.407 Y63.804 E4.51717
G1 X181.629 Y64.448 E4.53982
G1 X181.762 Y64.855 E4.55406
G1 X181.947 Y65.45 E4.57479
G1 X182.019 Y65.695 E4.58328
G1 X182.2 Y66.333 E4.60534
G1 X182.281 Y66.633 E4.61567
G1 X182.432 Y67.229 E4.63612
G1 X182.489 Y67.464 E4.64417
G1 X182.634 Y68.094 E4.66567
G1 X182.707 Y68.439 E4.6774
G1 X182.867 Y69.253 E4.70499
G1 X182.924 Y69.567 E4.7156
G1 X183.074 Y70.467 E4.74595
G1 X183.137 Y70.891 E4.76021
G1 X183.181 Y71.238 E4.77184
G1 X183.211 Y71.507 E4.78084
G1 X183.336 Y72.734 E4.82186
G1 X183.366 Y73.079 E4.83338
G1 X183.394 Y73.478 E4.84669
G1 X183.41 Y73.755 E4.85591
G1 X183.447 Y74.579 E4.88335
G1 X183.457 Y74.925 E4.89486
G1 X183.468 Y75.748 E4.92224
G1 X183.468 Y76.117 E4.93451
G1 X183.459 Y76.488 E4.94685
G1 X183.396 Y78.041 E4.99855
G1 X183.364 Y78.542 E5.01524
G1 X183.305 Y79.225 E5.03805
G1 X183.271 Y79.56 E5.04925
G1 X183.182 Y80.304 E5.07417
G1 X183.094 Y80.948 E5.09579
G1 X183.044 Y81.274 E5.10676
G1 X182.911 Y82.069 E5.13357
G1 X182.854 Y82.382 E5.14415
G1 X182.73 Y83.011 E5.16547
G1 X182.664 Y83.324 E5.17611
G1 X182.474 Y84.159 E5.20459
G1 X182.394 Y84.486 E5.21579
G1 X182.153 Y85.413 E5.24765
G1 X182.054 Y85.772 E5.26003
G1 X181.391 Y88.25 E5.34535
G1 X180.8 Y90.732 E5.43021
G1 X180.294 Y93.178 E5.51329
G1 X179.851 Y95.659 E5.59711
G1 X179.482 Y98.129 E5.68017
G1 X179.179 Y100.642 E5.76436
G1 X178.948 Y103.155 E5.8483
G1 X178.789 Y105.654 E5.93158
G1 X178.7 Y108.164 E6.01512
G1 X178.683 Y110.686 E6.099
G1 X178.737 Y113.238 E6.1839
G1 X178.86 Y115.699 E6.26586
G1 X179.059 Y118.243 E6.35073
G1 X179.324 Y120.732 E6.43398
G1 X179.661 Y123.224 E6.51762
G1 X180.074 Y125.738 E6.60236
G1 X180.542 Y128.155 E6.68424
G1 X181.089 Y130.612 E6.76796
G1 X181.723 Y133.125 E6.85416
G1 X182.055 Y134.328 E6.89567
G1 X182.191 Y134.809 E6.91229
G1 X182.269 Y135.101 E6.92235
G1 X182.421 Y135.701 E6.94293
G1 X182.483 Y135.957 E6.95169
G1 X182.62 Y136.558 E6.9722
G1 X182.685 Y136.863 E6.98257
G1 X182.853 Y137.71 E7.01129
G1 X182.913 Y138.042 E7.02251
G1 X183.059 Y138.918 E7.05205
G1 X183.122 Y139.346 E7.06644
G1 X183.166 Y139.694 E7.0781
G1 X183.196 Y139.959 E7.08697
G1 X183.322 Y141.196 E7.12833
G1 X183.352 Y141.547 E7.14004
G1 X183.379 Y141.935 E7.15298
G1 X183.395 Y142.205 E7.16198
G1 X183.432 Y143.028 E7.18938
G1 X183.442 Y143.375 E7.20092
G1 X183.453 Y144.199 E7.22833
G1 X183.453 Y144.567 E7.24057
G1 X183.444 Y144.938 E7.25292
G1 X183.381 Y146.492 E7.30464
G1 X183.349 Y146.994 E7.32137
G1 X183.29 Y147.676 E7.34414
G1 X183.256 Y148.007 E7.35521
G1 X183.193 Y148.545 E7.37323
G1 X183.166 Y148.758 E7.38037
G1 X183.078 Y149.401 E7.40195
G1 X183.03 Y149.72 E7.41268
G1 X182.897 Y150.517 E7.43956
G1 X182.845 Y150.806 E7.44932
G1 X182.726 Y151.418 E7.47006
G1 X182.648 Y151.785 E7.48254
G1 X182.506 Y152.402 E7.5036
G1 X182.412 Y152.778 E7.51649
G1 X182.016 Y154.258 E7.56744
G1 X181.841 Y154.848 E7.58791
G1 X181.479 Y155.95 E7.62649
G1 X181.375 Y156.249 E7.63702
G1 X181.208 Y156.712 E7.65339
G1 X181.103 Y156.993 E7.66337
G1 X180.922 Y157.455 E7.67987
G1 X180.797 Y157.76 E7.69084
G1 X180.342 Y158.826 E7.72939
G1 X180.088 Y159.379 E7.74963
G1 X179.361 Y160.851 E7.80423
G1 X179.138 Y161.278 E7.82025
G1 X178.85 Y161.802 E7.84014
G1 X178.67 Y162.118 E7.85224
G1 X178.362 Y162.637 E7.87231
G1 X177.913 Y163.365 E7.90076
G1 X177.736 Y163.641 E7.91166
G1 X177.286 Y164.321 E7.93878
G1 X177.108 Y164.582 E7.94929
G1 X176.756 Y165.082 E7.96963
G1 X176.567 Y165.341 E7.98029
G1 X176.073 Y166.001 E8.00771
G1 X175.879 Y166.253 E8.01829
G1 X175.295 Y166.988 E8.04951
G1 X174.992 Y167.353 E8.06529
G1 X174.776 Y167.602 E8.07625
G1 X174.611 Y167.788 E8.08452
G1 X173.724 Y168.765 E8.12841
G1 X173.496 Y169.009 E8.13952
G1 X173.249 Y169.265 E8.15135
G1 X173.049 Y169.467 E8.16081
G1 X172.604 Y169.905 E8.18157
G1 X172.381 Y170.118 E8.19183
G1 X171.591 Y170.853 E8.22772
G1 X171.131 Y171.258 E8.24811
G1 X169.98 Y172.215 E8.29789
G1 X169.448 Y172.63 E8.32033
G1 X168.225 Y173.526 E8.37076
G1 X167.919 Y173.743 E8.38324
G1 X167.561 Y173.987 E8.39765
G1 X167.28 Y174.172 E8.40883
G1 X166.524 Y174.654 E8.43866
G1 X166.25 Y174.823 E8.44936
G1 X165.751 Y175.121 E8.46869
G1 X165.471 Y175.283 E8.47945
G1 X164.919 Y175.591 E8.50048
G1 X164.578 Y175.773 E8.51333
G1 X163.242 Y176.458 E8.56327
G1 X162.643 Y176.743 E8.58533
G1 X161.492 Y177.248 E8.62714
G1 X161.228 Y177.36 E8.63668
G1 X161.005 Y177.451 E8.64469
G1 X160.695 Y177.572 E8.65575
G1 X159.701 Y177.943 E8.69104
G1 X159.404 Y178.049 E8.70153
G1 X158.829 Y178.245 E8.72174
G1 X158.563 Y178.332 E8.73104
G1 X158.208 Y178.443 E8.74342
G1 X157.875 Y178.541 E8.75496
G1 X156.571 Y178.904 E8.79998
G1 X156.182 Y179.006 E8.81336
G1 X155.937 Y179.064 E8.82173
G1 X155.274 Y179.215 E8.84435
G1 X154.956 Y179.283 E8.85516
G1 X154.499 Y179.373 E8.87065
G1 X153.677 Y179.522 E8.89844
G1 X153.361 Y179.575 E8.9091
G1 X152.57 Y179.694 E8.9357
G1 X152.251 Y179.737 E8.94641
G1 X151.621 Y179.813 E8.96751
G1 X151.289 Y179.848 E8.97862
G1 X150.477 Y179.921 E9.00573
G1 X150.159 Y179.945 E9.01634
G1 X149.253 Y180 E9.04653
G1 X148.835 Y180.017 E9.06044
G1 X148.438 Y180.026 E9.07365
G1 X148.152 Y180.029 E9.08316
G1 X146.97 Y180.025 E9.12248
G1 X146.627 Y180.018 E9.13389
G1 X146.193 Y180.003 E9.14833
G1 X145.917 Y179.99 E9.15752
G1 X145.164 Y179.945 E9.18261
G1 X144.835 Y179.921 E9.19358
G1 X143.945 Y179.841 E9.2233
G1 X143.637 Y179.809 E9.2336
G1 X143.375 Y179.778 E9.24238
G1 X143.05 Y179.734 E9.25329
G1 X141.651 Y179.526 E9.30033
G1 X141.169 Y179.444 E9.31659
G1 X140.485 Y179.311 E9.33977
G1 X140.186 Y179.248 E9.34993
G1 X139.514 Y179.096 E9.37285
G1 X138.796 Y178.92 E9.39743
G1 X138.475 Y178.836 E9.40847
G1 X137.707 Y178.623 E9.43498
G1 X137.422 Y178.54 E9.44485
G1 X136.809 Y178.352 E9.46618
G1 X136.467 Y178.241 E9.47813
G1 X135.691 Y177.975 E9.50542
G1 X135.401 Y177.871 E9.51567
G1 X134.541 Y177.549 E9.54621
G1 X134.135 Y177.387 E9.56075
G1 X133.871 Y177.276 E9.57027
G1 X133.619 Y177.167 E9.5794
G1 X132.386 Y176.612 E9.62438
G1 X132.085 Y176.471 E9.63543
G1 X131.779 Y176.322 E9.64675
G1 X131.521 Y176.192 E9.65636
G1 X131.111 Y175.979 E9.67173
G1 X128.83 Y174.835 E9.7566
G1 X126.536 Y173.763 E9.84082
G1 X124.235 Y172.767 E9.92421
G1 X121.898 Y171.832 E10.00793
G1 X119.521 Y170.959 E10.09216
G1 X117.14 Y170.16 E10.17569
G1 X114.719 Y169.423 E10.25986
G1 X112.326 Y168.767 E10.34239
G1 X109.835 Y168.16 E10.42766
G1 X107.396 Y167.64 E10.51061
G1 X104.925 Y167.185 E10.59418
G1 X102.424 Y166.795 E10.67836
G1 X99.973 Y166.486 E10.76053
G1 X97.423 Y166.236 E10.84575
G1 X94.926 Y166.064 E10.929
G1 X92.394 Y165.96 E11.01328
G1 X89.905 Y165.928 E11.09607
G1 X87.346 Y165.968 E11.1812
G1 X84.873 Y166.077 E11.26353
G1 X82.361 Y166.259 E11.3473
G1 X79.831 Y166.514 E11.43187
G1 X77.345 Y166.835 E11.51524
G1 X74.871 Y167.228 E11.59856
G1 X72.124 Y167.746 E11.69154
G1 X71.682 Y167.836 E11.70654
G1 X71.147 Y167.939 E11.72466
G1 X70.527 Y168.051 E11.74562
G1 X70.208 Y168.104 E11.75637
G1 X69.397 Y168.226 E11.78365
G1 X69.07 Y168.27 E11.79462
G1 X68.411 Y168.349 E11.8167
G1 X68.097 Y168.382 E11.8272
G1 X67.304 Y168.454 E11.85368
G1 X66.973 Y168.479 E11.86472
G1 X66.064 Y168.534 E11.89501
G1 X65.623 Y168.552 E11.90969
G1 X65.278 Y168.559 E11.92117
G1 X65.02 Y168.561 E11.92975
G1 X63.759 Y168.557 E11.97169
G1 X63.434 Y168.551 E11.9825
G1 X63.006 Y168.537 E11.99675
G1 X62.697 Y168.523 E12.00703
G1 X61.991 Y168.48 E12.03056
G1 X61.675 Y168.456 E12.0411
G1 X60.763 Y168.374 E12.07155
G1 X60.455 Y168.342 E12.08185
G1 X60.193 Y168.311 E12.09063
G1 X59.868 Y168.267 E12.10154
G1 X58.469 Y168.059 E12.14858
G1 X57.987 Y167.977 E12.16484
G1 X57.303 Y167.844 E12.18802
G1 X57.004 Y167.781 E12.19818
G1 X56.552 Y167.68 E12.21358
G1 X56.334 Y167.629 E12.22103
G1 X55.599 Y167.449 E12.2462
G1 X55.287 Y167.368 E12.25692
G1 X54.563 Y167.168 E12.2819
G1 X54.251 Y167.077 E12.29271
G1 X53.638 Y166.888 E12.31405
G1 X53.332 Y166.788 E12.32476
G1 X52.516 Y166.51 E12.35343
G1 X52.201 Y166.398 E12.36455
G1 X51.361 Y166.083 E12.39439
G1 X50.958 Y165.922 E12.40882
G1 X50.437 Y165.7 E12.42766
G1 X49.204 Y165.145 E12.47263
G1 X48.899 Y165.002 E12.48383
G1 X48.579 Y164.846 E12.49567
G1 X48.333 Y164.722 E12.50484
G1 X47.695 Y164.391 E12.52874
G1 X47.405 Y164.235 E12.53969
G1 X46.578 Y163.774 E12.57118
G1 X46.063 Y163.468 E12.59111
G1 X44.667 Y162.587 E12.64601
G1 X44.277 Y162.33 E12.66155
G1 X44.12 Y162.222 E12.66789
G1 X43.59 Y161.849 E12.68944
G1 X43.336 Y161.664 E12.69989
G1 X42.803 Y161.264 E12.72206
G1 X42.313 Y160.885 E12.74266
G1 X42.053 Y160.677 E12.75374
G1 X41.42 Y160.156 E12.781
G1 X41.168 Y159.942 E12.792
G1 X40.665 Y159.502 E12.81423
G1 X40.435 Y159.296 E12.8245
G1 X39.858 Y158.762 E12.85065
G1 X39.61 Y158.525 E12.86205
G1 X38.934 Y157.859 E12.89362
G1 X38.648 Y157.566 E12.90724
G1 X38.42 Y157.324 E12.91829
G1 X38.225 Y157.112 E12.92787
G1 X37.407 Y156.197 E12.9687
G1 X37.192 Y155.949 E12.97961
G1 X36.884 Y155.583 E12.99552
G1 X36.717 Y155.38 E13.00427
G1 X36.402 Y154.987 E13.02102
G1 X36.188 Y154.711 E13.03263
G1 X35.48 Y153.768 E13.07185
G1 X35.122 Y153.263 E13.09244
G1 X34.218 Y151.906 E13.14667
G1 X33.936 Y151.459 E13.16425
G1 X33.594 Y150.888 E13.18639
G1 X33.357 Y150.476 E13.2022
G1 X33.133 Y150.074 E13.21751
G1 X32.783 Y149.424 E13.24206
G1 X32.634 Y149.136 E13.25284
G1 X32.266 Y148.399 E13.28024
G1 X32.126 Y148.109 E13.29095
G1 X31.861 Y147.537 E13.31192
G1 X31.728 Y147.238 E13.3228
G1 X31.394 Y146.457 E13.35106
G1 X31.271 Y146.157 E13.36184
G1 X30.951 Y145.343 E13.39093
G1 X30.805 Y144.951 E13.40484
G1 X30.678 Y144.588 E13.41764
G1 X30.586 Y144.312 E13.42731
G1 X30.212 Y143.145 E13.46807
G1 X30.118 Y142.836 E13.47881
G1 X29.994 Y142.406 E13.4937
G1 X29.922 Y142.145 E13.5027
G1 X29.768 Y141.557 E13.52292
G1 X29.687 Y141.229 E13.53416
G1 X29.456 Y140.222 E13.56852
G1 X29.362 Y139.769 E13.58391
G1 X29.305 Y139.462 E13.59429
G1 X29.057 Y137.996 E13.64375
G1 X28.987 Y137.517 E13.65985
